src/imagens/sectionProjetos/iconeHtml.svg

<svg width="15" height="17" viewBox="0 0 15 17" fill="none" xmlns="http://www.w3.org/2000/svg">
<path d="M14.8613 0.357517C14.7961 0.282626 14.7023 0.240234 14.6045 0.240234H1.01484C0.917012 0.240234 0.823262 0.282626 0.758045 0.357517C0.691468 0.432408 0.65886 0.532734 0.668371 0.634474L1.89256 14.8963C1.90478 15.0461 2.00533 15.1705 2.14391 15.2128L7.71321 16.8661C7.7431 16.876 7.77571 16.8802 7.80832 16.8802C7.84093 16.8802 7.87218 16.876 7.90343 16.8661L13.4768 15.2128C13.6154 15.1705 13.7146 15.0461 13.7282 14.8963L14.951 0.634474C14.9605 0.532734 14.9279 0.432408 14.8613 0.357517ZM11.9306 5.27491H8.65886H5.38712L5.54337 7.1161H11.773L11.3056 12.5577L7.80696 13.6571L7.77299 13.6458L4.31511 12.5563L4.12625 10.3393H5.82054L5.89391 11.1998L7.82734 11.6209L9.72544 11.1998L9.92788 8.8711H3.99989L3.53929 3.51567H7.81036H12.0814L11.9306 5.27491Z" fill="#00FFC2"/>
</svg>

<svg xmlns="http://www.w3.org/2000/svg" width="15" height="17" fill="none"><path fill="#00FFC2" d="M14.861.358a.34.34 0 0 0-.257-.118H1.014a.34.34 0 0 0-.256.118.365.365 0 0 0-.09.276l1.225 14.262a.36.36 0 0 0 .25.317l5.57 1.653c.03.01.063.014.095.014a.31.31 0 0 0 .095-.014l5.574-1.653a.361.361 0 0 0 .251-.317L14.951.634a.365.365 0 0 0-.09-.276Zm-2.93 4.917H5.387l.156 1.841h6.23l-.467 5.442-3.499 1.1-.034-.012-3.458-1.09-.189-2.217h1.695l.073.86 1.933.422 1.898-.421.203-2.329H4l-.46-5.355h8.541l-.15 1.759Z"/></svg>
